X:506
T: HOPSA HOPSA RUEBER UND NUEBER
N: E1763
O: Europa, Mitteleuropa, Deutschland, Schlesien
R: Spott - Lied auf Bauern
M: 2/4
L: 1/16
K: A
 | A2A2A2c2 | ccB2B2A2
ccc2cce2 | e2d2d2c2
c4B4 | A4z4
G2B2B2B2 | A2A2A2F2
G2B2B2B2 | B2A2A2F2
G4F4 | E4z4
A2A2A2c2 | ccB2B2A2
ccc2cce2 | e2d2d2c2
c4B4 | A4z4

